!!!COM: Palestrina, Giovanni Perluigi da
!!!OPR: Nasce la gioia mia
!!!OTL: Sanctus
**kern	**kern	**kern	**kern	**kern	**kern
*Ibass	*Itenor	*Itenor	*Icalto	*Icant	*Icant
!Bassus	!Tenor 2	!Tenor 1	!Altus	!Cantus 2	!Cantus 1
*clefF4	*clefGv2	*clefGv2	*clefG2	*clefG2	*clefG2
*k[b-]	*k[b-]	*k[b-]	*k[b-]	*k[b-]	*k[b-]
*G:dor	*G:dor	*G:dor	*G:dor	*G:dor	*G:dor
*M4/2	*M4/2	*M4/2	*M4/2	*M4/2	*M4/2
=1	=1	=1	=1	=1	=1
0r	0r	1.G	0r	0r	0r
.	.	2G	.	.	.
=2	=2	=2	=2	=2	=2
0r	1.d	2B-	0r	0r	0r
.	.	2G	.	.	.
.	.	2.B-	.	.	.
.	2d	.	.	.	.
.	.	4c	.	.	.
=3	=3	=3	=3	=3	=3
1.G	2B-	1d	0r	0r	1r
.	2G	.	.	.	.
.	2.B-	2G	.	.	[1dd
2G	.	4d	.	.	.
.	4c	4e	.	.	.
=4	=4	=4	=4	=4	=4
2F	4d	4f	0r	0r	2dd]
.	4e	4g	.	.	.
2D	2.f	2.a	.	.	2dd
2.F	.	.	.	.	2cc
.	4g	4g	.	.	.
.	[2a	2f	.	.	2a
4G	.	.	.	.	.
=5	=5	=5	=5	=5	=5
0A	4a]	2e	0r	1.a	2cc
.	4g	.	.	.	.
.	2f	1d	.	.	2dd
.	1e	.	.	.	1ee
.	.	2c#	.	2a	.
=6	=6	=6	=6	=6	=6
0D	1d	[0d	1.a	2f	2.ff
.	.	.	.	2d	.
.	.	.	.	.	4ee
.	1r	.	.	2.f	[1dd
.	.	.	2a	.	.
.	.	.	.	4g	.
=7	=7	=7	=7	=7	=7
0r	0r	1d]	2f	2a	1dd]
.	.	.	2d	2b-	.
.	.	1r	2.f	2a	2cc
.	.	.	.	[2dd	2ff
.	.	.	4g	.	.
=8	=8	=8	=8	=8	=8
0r	1r	0r	1a	2dd]	1ee
.	.	.	.	2cc	.
.	[1G	.	1d	4b-	[1dd
.	.	.	.	4a	.
.	.	.	.	4g	.
.	.	.	.	4f#	.
=9	=9	=9	=9	=9	=9
0r	2G]	0r	2.b-	1g	0dd]
.	2G	.	.	.	.
.	.	.	8a	.	.
.	.	.	8g	.	.
.	2B-	.	2f	2d	.
.	2G	.	[2b-	[2g	.
=10	=10	=10	=10	=10	=10
0r	2.B-	1r	4b-]	4g]	2r
.	.	.	4a	4f	.
.	.	.	1g	2b-	1dd
.	4c	.	.	.	.
.	1d	2r	.	1a	.
.	.	[2d	2f#	.	2dd
=11	=11	=11	=11	=11	=11
1.G	4G	2d]	0g	1g	2b-
.	4A	.	.	.	.
.	4B-	2d	.	.	2g
.	4c	.	.	.	.
.	[1d	1B-	.	2r	2.b-
2G	.	.	.	[2g	.
.	.	.	.	.	4cc
=12	=12	=12	=12	=12	=12
2B-	0d]	4G	1r	2g]	1dd
.	.	4A	.	.	.
2G	.	4B-	.	2g	.
.	.	4c	.	.	.
2.B-	.	2d	2r	2f	1dd
.	.	[2g	[2d	2b-	.
4c	.	.	.	.	.
=13	=13	=13	=13	=13	=13
1d	2r	4g]	2d]	[0a	2r
.	.	4f	.	.	.
.	2.a	2f	2d	.	2dd
[1D	.	2.d	2f	.	2dd
.	4g	.	.	.	.
.	4f	.	2d	.	[2ff
.	4e	8c	.	.	.
.	.	8B-	.	.	.
=14	=14	=14	=14	=14	=14
2D]	1d	1A	2.f	1a]	4ff]
.	.	.	.	.	4ee
2D	.	.	.	.	2dd
.	.	.	4g	.	.
2F	[1A	2r	[1a	1r	2cc
2D	.	[2a	.	.	[2ff
=15	=15	=15	=15	=15	=15
2.F	1A]	4a]	0a]	2r	4ff]
.	.	4g	.	.	4ee
.	.	2f	.	2.a	1dd
4G	.	.	.	.	.
1A	2r	1e	.	.	.
.	.	.	.	4g	.
.	2A	.	.	2e	2cc#
=16	=16	=16	=16	=16	=16
1D	2A	1d	2r	4f	2dd
.	.	.	.	4g	.
.	2F	.	2.f	2a	2.a
2D	2f	1r	.	1d	.
.	.	.	4f	.	4a
2BB-	2f	.	2b-	.	2dd
=17	=17	=17	=17	=17	=17
2.F	1.f	0r	2a	0r	2cc
.	.	.	2f	.	2a
4F	.	.	.	.	.
2F	.	.	2a	.	2cc
2G	2d	.	2g	.	2b-
=18	=18	=18	=18	=18	=18
1D	1d	2r	2f	2r	1a
.	.	2.d	2.f	2.a	.
1r	1r	.	.	.	1r
.	.	4d	4f	4a	.
.	.	2B-	2b-	2dd	.
=19	=19	=19	=19	=19	=19
0r	0r	1f	2a	2cc	1r
.	.	.	2f	2a	.
.	.	2f	2a	2cc	2r
.	.	[2g	2g	2b-	[2dd
=20	=20	=20	=20	=20	=20
0r	1r	2g]	1.b-	4g	4dd]
.	.	.	.	4a	4dd
.	.	2e-	.	4b-	2gg
.	.	.	.	4cc	.
.	2r	1d	.	1dd	2ff
.	[2d	.	4a	.	2dd
.	.	.	4g	.	.
=21	=21	=21	=21	=21	=21
0r	4d]	0r	2a	0r	4ff
.	4d	.	.	.	4ee-
.	2g	.	2.b-	.	4dd
.	.	.	.	.	4cc
.	2f	.	.	.	2dd
.	.	.	4a	.	.
.	2d	.	[2a	.	2dd
=22	=22	=22	=22	=22	=22
0r	2f	1r	2a]	0r	4cc
.	.	.	.	.	4b-
.	2e-	.	1g	.	4a
.	.	.	.	.	4g
.	1d	2r	.	.	1a
.	.	[2d	2f#	.	.
=23	=23	=23	=23	=23	=23
2r	2.G	4d]	0g	0r	[0g
.	.	4d	.	.	.
2.G	.	2.g	.	.	.
.	4A	.	.	.	.
.	2B	.	.	.	.
4G	.	4f	.	.	.
2c	2c	2e-	.	.	.
=24	=24	=24	=24	=24	=24
2B-	1G	1.d	2.b-	2r	1g]
2G	.	.	.	2.g	.
.	.	.	4a	.	.
2B-	1r	.	2g	.	1r
.	.	.	.	4g	.
2A	.	2c	2f#	2cc	.
=25	=25	=25	=25	=25	=25
2G	2r	4d	1g	2b-	1r
.	.	4c	.	.	.
1G	1d	4B-	.	2g	.
.	.	4A	.	.	.
.	.	2G	1r	2b-	2r
2F#	2d	2A	.	[2a	[2dd
=26	=26	=26	=26	=26	=26
1G	1d	1B-	2r	2a]	4dd]
.	.	.	.	.	4dd
.	.	.	2.d	2g	2gg
[1D	2.f	2A	.	1a	2ff
.	.	.	4e	.	.
.	.	[2d	4f	.	2dd
.	4e	.	4g	.	.
=27	=27	=27	=27	=27	=27
2D]	2d	4d]	4a	0r	2ff
.	.	4d	4b-	.	.
2C	2e	2g	2cc	.	2ee
[1D	1f	2f	[1a	.	2dd
.	.	2d	.	.	[2ff
=28	=28	=28	=28	=28	=28
1D]	2d	1f	1a]	1r	4ff]
.	.	.	.	.	4ee
.	2.a	.	.	.	1dd
1A	.	1e	1a	2r	.
.	4g	.	.	.	.
.	2e	.	.	2a	2cc#
=29	=29	=29	=29	=29	=29
0D	1f#	1d	2r	2a	2.dd
.	.	.	2d	2a	.
.	.	.	.	.	8cc
.	.	.	.	.	8b-
.	2r	1r	2d	2.dd	1a
.	2d	.	2d	.	.
.	.	.	.	4cc	.
=30	=30	=30	=30	=30	=30
0r	2d	1G	2.g	2b	1r
.	2e	.	.	1cc	.
.	.	.	4f	.	.
.	2.g	2G	2e	.	2r
.	.	2G	2d	2b	2g
.	4f	.	.	.	.
=31	=31	=31	=31	=31	=31
0r	4e	2.c	1e	2cc	2g
.	4d	.	.	.	.
.	4c	.	.	2.cc	2g
.	4d	4B-	.	.	.
.	4e	2A	2r	.	2cc
.	4f	.	.	4a	.
.	2g	2G	2d	[2dd	2b-
=32	=32	=32	=32	=32	=32
0r	2f#	2d	2d	4dd]	2a
.	.	.	.	4cc	.
.	1g	2G	2d	4b-	2dd
.	.	.	.	4a	.
.	.	[1c	2e	2g	[1cc
.	[2f	.	2f	2a	.
=33	=33	=33	=33	=33	=33
1C	2f]	0c]	1g	2g	1cc]
.	4e	.	.	2.cc	.
.	4d	.	.	.	.
2C	1e	.	1g	.	2r
.	.	.	.	4cc	.
2C	.	.	.	2cc	[2cc
=34	=34	=34	=34	=34	=34
2.F	2f	2r	1f	2.a	4cc]
.	.	.	.	.	4cc
.	2c	2.A	.	.	2cc
4E	.	.	.	4g	.
2D	2d	.	2r	4f	2ff
.	.	4A	.	4d	.
2C	[2G	2c	[2g	4e	2ee
.	.	.	.	4f	.
=35	=35	=35	=35	=35	=35
0G	2G]	2B	4g]	1g	2dd
.	.	.	4g	.	.
.	2.g	2c	2e	.	1cc
.	.	2d	1d	1g	.
.	4f	.	.	.	.
.	2d	2G	.	.	2b
=36	=36	=36	=36	=36	=36
1C	1e	2r	1c	1g	1cc
.	.	2g	.	.	.
1r	1r	2e	2r	2g	1cc
.	.	2f	[2f	2a	.
=37	=37	=37	=37	=37	=37
0r	2r	2d	2f]	2a	2dd
.	2g	2G	1g	2b	2dd
.	2e	2c	.	4cc	2ee
.	.	.	.	4b-	.
.	2f	2A	2a	4a	2cc
.	.	.	.	4g	.
=38	=38	=38	=38	=38	=38
0r	2d	0r	2a	2f	1dd
.	2G	.	2b	1g	.
.	2c	.	4cc	.	2ee
.	.	.	4b-	.	.
.	2F	.	4a	2cc	4ff
.	.	.	4g	.	4ee
=39	=39	=39	=39	=39	=39
0r	2B-	0r	2f	1.b-	4dd
.	.	.	.	.	4cc
.	2G	.	2.g	.	4b-
.	.	.	.	.	4cc
.	2B-	.	.	.	2dd
.	.	.	4f	.	.
.	2c	.	2e	2a	[2cc
=40	=40	=40	=40	=40	=40
1r	1G	2r	1d	0g	2cc]
.	.	1g	.	.	2b
1c	1r	.	2e	.	2cc
.	.	2e	2g	.	[2cc
=41	=41	=41	=41	=41	=41
2A	2r	2f	2a	2r	2cc]
2B-	2d	1d	2f	2b-	2dd
2G	2B-	.	2g	2b-	2dd
2C	2c	[2c	2e	2g	2ee
=42	=42	=42	=42	=42	=42
2F	1A	4c]	2.f	[0a	2cc
.	.	4A	.	.	.
2D	.	2d	.	.	2ff
.	.	.	4d	.	.
2A	2A	2c#	2e	.	2ee
2D	[2a	2d	2d	.	[2ff
=43	=43	=43	=43	=43	=43
2.F	4a]	1A	2c	1a]	4ff]
.	4g	.	.	.	4ee
.	2f	.	1A	.	1dd
4G	.	.	.	.	.
2.A	1e	2r	.	[1a	.
.	.	[2A	[2a	.	2cc#
4G	.	.	.	.	.
=44	=44	=44	=44	=44	=44
2F#	[0d	2A]	2a]	2a]	0dd
2G	.	2B-	1g	2d	.
1D	.	1A	.	1a	.
.	.	.	2f#	.	.
=45	=45	=45	=45	=45	=45
0G	0d]	0G	0g	0b	0dd
==	==	==	==	==	==
*-	*-	*-	*-	*-	*-
!!!CDT: 1525/^1526/-1594/2/2
!!!OCY: Italia
!!!AGN: Mass (Parody)
!!!AST: renaissance, vocal
!!!ASW: Madrigal 1565 (Primavera)
!!!PWK: Masses, Book 5
!!!RNB: Cadence finals: D
!!!YOR: Le Opere Complete, v. 15, p. 161
!!!YOO: Rome, Italy: Fratelli Scalera
!!!END: 1992//
!!!EED: John Miller
!!!YEC: Copyright 2000, John Miller
!!!YEN: United States of America
!!!YEM: Rights to all derivative electronic formats reserved.
!!!YEM: Refer to licensing agreement for further details.
!!!YEM: This file must be accompanied by the licensing agreement.
!!!YEM: A copy of the licensing agreement may be found at http://www.music-cog.ohio-state.edu/HumdrumDatabases/Palestrina/license.txt
!!!EMD: converted to Humdrum by Bret Aarden
